icon-svg/rooms-outdoor.svg

<?xml version="1.0" encoding="UTF-8"?>
<svg width="32px" height="32px" viewBox="0 0 32 32" version="1.1" fill="#44739e" xmlns="http://www.w3.org/2000/svg" xmlns:xlink="http://www.w3.org/1999/xlink">
            <path d="M11,10.0003 C14.866,10.0003 18,13.1343 18,17.0003 C18,20.5473 15.359,23.4713 11.937,23.9303 L11.937,27.0003 C11.937,27.5533 11.49,28.0003 10.938,28.0003 C10.385,28.0003 9.938,27.5533 9.938,27.0003 L9.938,23.9113 C6.577,23.3973 4,20.5043 4,17.0003 C4,13.1343 7.134,10.0003 11,10.0003 Z M28,19.346 C28,22.592 25.632,22.954 23,22.994 L23,27 C23,27.553 22.553,28 22,28 C21.447,28 21,27.553 21,27 L21,22.992 C20.485,22.983 19.979,22.965 19.5,22.912 C18.78,22.833 18.426,22.028 18.781,21.398 C19.516,20.097 19.937,18.598 19.937,17 C19.937,14.84 19.167,12.861 17.893,11.308 C17.783,11.174 17.747,10.994 17.804,10.83 C19.075,7.17 20.764,4 22,4 C24.25,4 28,14.503 28,19.346 Z"></path>
</svg>

<svg xmlns="http://www.w3.org/2000/svg" fill="#44739e" viewBox="0 0 24 24"><path d="M11 10.0003c3.866 0 7 3.134 7 7 0 3.547-2.641 6.471-6.063 6.93v3.07c0 .553-.447 1-.999 1-.553 0-1-.447-1-1v-3.089C6.577 23.3973 4 20.5043 4 17.0003c0-3.866 3.134-7 7-7m17 9.3457c0 3.246-2.368 3.608-5 3.648V27c0 .553-.447 1-1 1s-1-.447-1-1v-4.008c-.515-.009-1.021-.027-1.5-.08-.72-.079-1.074-.884-.719-1.514A8.91 8.91 0 0 0 19.937 17c0-2.16-.77-4.139-2.044-5.692-.11-.134-.146-.314-.089-.478C19.075 7.17 20.764 4 22 4c2.25 0 6 10.503 6 15.346"/></svg>
